X:318
L:1/8
Q:1/2=80
M:2/2
K:A
 d"_only two sharps in ms" | ceef a2 ae | f2 fe a2 ae | ceef a2 ae | faec B2 A ::"_rest added" z | 
 ceea fddf | ecce fBBd | ceea fddf | ecac B2 A :|

